packages/icons/svg/16/Artwork.svg

<svg width="16" height="16" viewBox="0 0 16 16" fill="none" xmlns="http://www.w3.org/2000/svg">
<path fill-rule="evenodd" clip-rule="evenodd" d="M4 3C2.89543 3 2 3.89543 2 5V11C2 12.1046 2.89543 13 4 13H12C13.1046 13 14 12.1046 14 11V5C14 3.89543 13.1046 3 12 3H4ZM8 5H4V11H8V5Z" fill="#858585"/>
</svg>

<svg width="16" height="16" fill="none" xmlns="http://www.w3.org/2000/svg" viewBox="0 0 16 16"><path fill-rule="evenodd" clip-rule="evenodd" d="M4 3a2 2 0 00-2 2v6a2 2 0 002 2h8a2 2 0 002-2V5a2 2 0 00-2-2H4zm4 2H4v6h4V5z" fill="currentColor"></path></svg>
